urbanize.at/static/images/calendar.svg

<?xml version="1.0" encoding="UTF-8" standalone="no"?>
<svg
   width="10.829936mm"
   height="13.834964mm"
   viewBox="0 0 10.829936 13.834963"
   version="1.1"
   id="svg856"
   inkscape:version="1.1 (c4e8f9ed74, 2021-05-24)"
   sodipodi:docname="calendar.svg"
   xmlns:inkscape="http://www.inkscape.org/namespaces/inkscape"
   xmlns:sodipodi="http://sodipodi.sourceforge.net/DTD/sodipodi-0.dtd"
   xmlns="http://www.w3.org/2000/svg"
   xmlns:svg="http://www.w3.org/2000/svg"
   xmlns:rdf="http://www.w3.org/1999/02/22-rdf-syntax-ns#"
   xmlns:cc="http://creativecommons.org/ns#"
   xmlns:dc="http://purl.org/dc/elements/1.1/">
  <defs
     id="defs850">
    <clipPath
       id="clipPath748"
       clipPathUnits="userSpaceOnUse">
      <path
         inkscape:connector-curvature="0"
         id="path746"
         d="M 0,0 H 1280 V 3100 H 0 Z" />
    </clipPath>
  </defs>
  <sodipodi:namedview
     id="base"
     pagecolor="#ffffff"
     bordercolor="#666666"
     borderopacity="1.0"
     inkscape:pageopacity="0.0"
     inkscape:pageshadow="2"
     inkscape:zoom="7.9195959"
     inkscape:cx="21.402607"
     inkscape:cy="36.61803"
     inkscape:document-units="mm"
     inkscape:current-layer="g754"
     inkscape:document-rotation="0"
     showgrid="false"
     fit-margin-top="0.5"
     fit-margin-left="0.5"
     fit-margin-right="0.5"
     fit-margin-bottom="0.5"
     lock-margins="true"
     inkscape:window-width="2560"
     inkscape:window-height="1371"
     inkscape:window-x="0"
     inkscape:window-y="0"
     inkscape:window-maximized="1"
     inkscape:pagecheckerboard="0" />
  <metadata
     id="metadata853">
    <rdf:RDF>
      <cc:Work
         rdf:about="">
        <dc:format>image/svg+xml</dc:format>
        <dc:type
           rdf:resource="http://purl.org/dc/dcmitype/StillImage" />
        <dc:title />
      </cc:Work>
    </rdf:RDF>
  </metadata>
  <g
     inkscape:label="Layer 1"
     inkscape:groupmode="layer"
     id="layer1"
     transform="translate(68.914967,-12.453823)">
    <g
       id="g742"
       transform="matrix(0.35277777,0,0,-0.35277777,-261.85466,303.28987)">
      <g
         clip-path="url(#clipPath748)"
         id="g744">
        <g
           transform="translate(551.3702,815.772)"
           id="g750">
          <path
             inkscape:connector-curvature="0"
             id="path752"
             style="fill:#e7eb13;fill-opacity:1;fill-rule:nonzero;stroke:none"
             d="m 0,0 c 0,0 -3.037,0 -3.037,-3.037 v -23.08 c 0,0 0,-3.037 3.037,-3.037 h 21.79 c 0,0 3.037,0 3.037,3.037 v 23.08 c 0,0 0,3.037 -3.037,3.037 z" />
        </g>
        <g
           transform="translate(576.197,805.4463)"
           id="g754">
          <path
             inkscape:connector-curvature="0"
             id="path756"
             style="fill:#f37162;fill-opacity:1;fill-rule:nonzero;stroke:none"
             d="m 0,0 v 7.289 c 0,0 0,3.037 -3.037,3.037 h -21.79 c 0,0 -3.037,0 -3.037,-3.037 V 0 Z" />
        </g>
        <g
           transform="translate(554.5818,807.9067)"
           id="g758"
           style="fill:#c83737">
          <path
             inkscape:connector-curvature="0"
             id="path760"
             style="fill:#c83737;fill-opacity:1;fill-rule:nonzero;stroke:none"
             d="M 0,0 C 1.686,0 3.052,1.366 3.052,3.052 3.052,4.738 1.686,6.104 0,6.104 -1.686,6.104 -3.052,4.738 -3.052,3.052 -3.052,1.366 -1.686,0 0,0" />
        </g>
        <g
           transform="translate(569.9486,807.9067)"
           id="g762"
           style="fill:#c83737">
          <path
             inkscape:connector-curvature="0"
             id="path764"
             style="fill:#c83737;fill-opacity:1;fill-rule:nonzero;stroke:none"
             d="M 0,0 C 1.686,0 3.052,1.366 3.052,3.052 3.052,4.738 1.686,6.104 0,6.104 -1.686,6.104 -3.052,4.738 -3.052,3.052 -3.052,1.366 -1.686,0 0,0" />
        </g>
      </g>
    </g>
    <g
       transform="matrix(0.35277777,0,0,-0.35277777,-60.789505,17.163167)"
       id="g766">
      <path
         inkscape:connector-curvature="0"
         id="path768"
         style="fill:none;stroke:#ea0029;stroke-width:3.214;stroke-linecap:round;stroke-linejoin:miter;stroke-miterlimit:4;stroke-dasharray:none;stroke-opacity:1"
         d="M 0,0 V 10.325" />
    </g>
    <g
       transform="matrix(0.35277777,0,0,-0.35277777,-66.210534,17.163167)"
       id="g770">
      <path
         inkscape:connector-curvature="0"
         id="path772"
         style="fill:#000000;stroke:#ea0029;stroke-width:3.214;stroke-linecap:round;stroke-linejoin:miter;stroke-miterlimit:4;stroke-dasharray:none;stroke-opacity:1;fill-opacity:1"
         d="M 0,0 V 10.325" />
    </g>
    <path
       d="m -68.414831,20.645984 h 9.8298"
       style="fill:none;stroke:#ea0029;stroke-width:0.176389;stroke-linecap:butt;stroke-linejoin:miter;stroke-miterlimit:4;stroke-dasharray:none;stroke-opacity:1"
       id="path776"
       inkscape:connector-curvature="0" />
    <path
       d="m -68.414831,22.409881 h 9.8298"
       style="fill:none;stroke:#ea0029;stroke-width:0.176389;stroke-linecap:butt;stroke-linejoin:miter;stroke-miterlimit:4;stroke-dasharray:none;stroke-opacity:1"
       id="path780"
       inkscape:connector-curvature="0" />
    <path
       d="m -68.414831,24.173779 h 9.8298"
       style="fill:none;stroke:#ea0029;stroke-width:0.176389;stroke-linecap:butt;stroke-linejoin:miter;stroke-miterlimit:4;stroke-dasharray:none;stroke-opacity:1"
       id="path784"
       inkscape:connector-curvature="0" />
    <path
       d="m -67.027779,19.145981 v 6.642805"
       style="fill:none;stroke:#ea0029;stroke-width:0.176389;stroke-linecap:butt;stroke-linejoin:miter;stroke-miterlimit:4;stroke-dasharray:none;stroke-opacity:1"
       id="path788"
       inkscape:connector-curvature="0" />
    <path
       d="m -65.263889,19.145981 v 6.642805"
       style="fill:none;stroke:#ea0029;stroke-width:0.176389;stroke-linecap:butt;stroke-linejoin:miter;stroke-miterlimit:4;stroke-dasharray:none;stroke-opacity:1"
       id="path792"
       inkscape:connector-curvature="0" />
    <path
       d="m -63.500002,19.145981 v 6.642805"
       style="fill:none;stroke:#ea0029;stroke-width:0.176389;stroke-linecap:butt;stroke-linejoin:miter;stroke-miterlimit:4;stroke-dasharray:none;stroke-opacity:1"
       id="path796"
       inkscape:connector-curvature="0" />
    <path
       d="m -61.736113,19.145981 v 6.642805"
       style="fill:none;stroke:#ea0029;stroke-width:0.176389;stroke-linecap:butt;stroke-linejoin:miter;stroke-miterlimit:4;stroke-dasharray:none;stroke-opacity:1"
       id="path800"
       inkscape:connector-curvature="0" />
    <path
       d="m -59.972223,19.145981 v 6.642805"
       style="fill:none;stroke:#ea0029;stroke-width:0.176389;stroke-linecap:butt;stroke-linejoin:miter;stroke-miterlimit:4;stroke-dasharray:none;stroke-opacity:1"
       id="path804"
       inkscape:connector-curvature="0" />
  </g>
</svg>

<svg width="10.83mm" height="13.835mm" version="1.1" viewBox="0 0 10.83 13.835" xmlns="http://www.w3.org/2000/svg">
    <defs>
        <clipPath id="clipPath748">
            <path d="m0 0h1280v3100h-1280z"/>
        </clipPath>
    </defs>
    <g transform="translate(68.915 -12.454)">
        <g transform="matrix(.35278 0 0 -.35278 -261.85 303.29)">
            <g clip-path="url(#clipPath748)">
                <g transform="translate(551.37 815.77)">
                    <path d="m0 0s-3.037 0-3.037-3.037v-23.08s0-3.037 3.037-3.037h21.79s3.037 0 3.037 3.037v23.08s0 3.037-3.037 3.037z" fill="#ffff00"/>
                </g>
                <g transform="translate(576.2 805.45)">
                    <path d="m0 0v7.289s0 3.037-3.037 3.037h-21.79s-3.037 0-3.037-3.037v-7.289z" fill="#62bdf3"/>
                </g>
                <g transform="translate(554.58 807.91)" fill="#376fc8">
                    <path d="m0 0c1.686 0 3.052 1.366 3.052 3.052s-1.366 3.052-3.052 3.052-3.052-1.366-3.052-3.052 1.366-3.052 3.052-3.052" fill="#376fc8"/>
                </g>
                <g transform="translate(569.95 807.91)" fill="#376fc8">
                    <path d="m0 0c1.686 0 3.052 1.366 3.052 3.052s-1.366 3.052-3.052 3.052-3.052-1.366-3.052-3.052 1.366-3.052 3.052-3.052" fill="#376fc8"/>
                </g>
            </g>
        </g>
        <g transform="matrix(.35278 0 0 -.35278 -60.79 17.163)">
            <path d="m0 0v10.325" fill="none" stroke="#1c9bd8" stroke-linecap="round" stroke-width="3.214"/>
        </g>
        <g transform="matrix(.35278 0 0 -.35278 -66.211 17.163)">
            <path d="m0 0v10.325" stroke="#1c9bd8" stroke-linecap="round" stroke-width="3.214"/>
        </g>
        <g fill="none" stroke="#1c9bd8" stroke-width=".17639">
            <path d="m-68.415 20.646h9.8298"/>
            <path d="m-68.415 22.41h9.8298"/>
            <path d="m-68.415 24.174h9.8298"/>
            <path d="m-67.028 19.146v6.6428"/>
            <path d="m-65.264 19.146v6.6428"/>
            <path d="m-63.5 19.146v6.6428"/>
            <path d="m-61.736 19.146v6.6428"/>
            <path d="m-59.972 19.146v6.6428"/>
        </g>
    </g>
</svg>
